svg/fluentui-system-icons/ic_fluent_arrow_outline_up_right_32_regular.svg

<svg width="32" height="32" viewBox="0 0 32 32" fill="none" xmlns="http://www.w3.org/2000/svg">
<path d="M27.9824 5.36775C28.0466 4.59743 27.4032 3.95407 26.6329 4.01827L10.1173 5.39457C9.05676 5.48294 8.5847 6.77163 9.33721 7.52413L11.9575 10.1444C12.3479 10.5349 12.348 11.1679 11.9577 11.5584L4.29945 19.2211C3.81165 19.7092 3.81164 20.5002 4.29942 20.9883L11.0119 27.7052C11.5 28.1937 12.2917 28.1938 12.78 27.7055L20.4422 20.0433C20.8327 19.6528 21.4659 19.6528 21.8564 20.0433L24.4765 22.6634C25.229 23.4159 26.5177 22.9439 26.6061 21.8834L27.9824 5.36775ZM26.4668 2.02517C28.4697 1.85827 30.1424 3.53099 29.9755 5.53384L28.5992 22.0495C28.3694 24.8068 25.0188 26.0342 23.0623 24.0777L21.1493 22.1646L14.1942 29.1198C12.9247 30.3893 10.8663 30.3889 9.59721 29.119L2.88474 22.4021C1.61651 21.133 1.61655 19.0763 2.88483 17.8073L9.83638 10.8517L7.92299 8.93835C5.96648 6.98184 7.19383 3.63126 9.95119 3.40148L26.4668 2.02517Z" fill="#212121"/>
</svg>

<svg xmlns="http://www.w3.org/2000/svg" width="32" height="32"><path d="M27.982 5.368a1.25 1.25 0 0 0-1.35-1.35L10.118 5.395c-1.06.088-1.532 1.377-.78 2.13l2.62 2.62a1 1 0 0 1 0 1.413L4.3 19.221a1.25 1.25 0 0 0 0 1.767l6.713 6.717a1.25 1.25 0 0 0 1.768 0l7.662-7.662a1 1 0 0 1 1.414 0l2.62 2.62c.753.753 2.042.28 2.13-.78l1.376-16.515Zm-1.515-3.343a3.25 3.25 0 0 1 3.509 3.509l-1.377 16.515c-.23 2.758-3.58 3.985-5.537 2.029l-1.913-1.913-6.955 6.955a3.25 3.25 0 0 1-4.597-.001l-6.712-6.717a3.25 3.25 0 0 1 0-4.595l6.951-6.955-1.913-1.914c-1.957-1.956-.73-5.307 2.028-5.537l16.516-1.376Z"/></svg>
